music-off.svg

<svg fill="currentColor" viewBox="0 0 24 24"><path d="M2 5.27 3.28 4 20 20.72 18.73 22 9 12.27v5.23A3.5 3.5 0 0 1 5.5 21 3.5 3.5 0 0 1 2 17.5 3.5 3.5 0 0 1 5.5 14c.54 0 1.05.12 1.5.34v-4.07zM21 3v12.5c0 1-.43 1.92-1.12 2.56l-4.94-4.94c.64-.69 1.56-1.12 2.56-1.12.54 0 1.05.12 1.5.34V6.47l-8.83 1.88-2.51-2.51z"/></svg>

<svg  viewBox="0 0 24 24" fill="currentColor"><path  d="M2,5.27L3.28,4L20,20.72L18.73,22L9,12.27V17.5A3.5,3.5 0 0,1 5.5,21A3.5,3.5 0 0,1 2,17.5A3.5,3.5 0 0,1 5.5,14C6.04,14 6.55,14.12 7,14.34V10.27L2,5.27M21,3V15.5C21,16.5 20.57,17.42 19.88,18.06L14.94,13.12C15.58,12.43 16.5,12 17.5,12C18.04,12 18.55,12.12 19,12.34V6.47L10.17,8.35L7.66,5.84L21,3Z"/></svg>
